X:1
P: Highland Laddie
C: From Barbara McOwen/SRSNH 10.4
M: C
C: arr. T. Traub 3-13-2005
R: reel
L: 1/4
K: D
|: A|"D"d>e f a|"A7"g/f/e/d/ "D"f2|"Em"f e e d/e/|"A7"f e e d/B/|"D"d>e f a|"A7"g/f/e/d/ "Bm"f e/f/|"G"d B B A/B/|"Bm"d B B :|
|: g|"D"a>g "A7"f e/f/|"D"d B/e/"Bm"f2|"Em"f e e d/e/|"A7"f e e g| "D"a>g "A7"f e/f/|"D"d B/e/ f e/f/|"G"d B B A/B/|"Bm"d B B :|
